app/img/store-google.svg

<svg width="204" height="60" viewBox="0 0 204 60" fill="none" xmlns="http://www.w3.org/2000/svg">
<path d="M195.644 60H7.52454C3.31083 60 0 56.7001 0 52.5002V7.4998C0 3.29994 3.31083 0 7.52454 0H195.643C199.857 0 203.168 3.29994 203.168 7.4998V52.5002C203.168 56.7001 199.857 60 195.644 60Z" fill="#2C2C2C"/>
<path d="M195.644 1.19961C199.105 1.19961 201.965 4.05 201.965 7.4998V52.5002C201.965 55.95 199.105 58.8004 195.644 58.8004H7.52454C4.06337 58.8004 1.20357 55.95 1.20357 52.5002V7.4998C1.20357 4.05 4.06337 1.19961 7.52454 1.19961H195.644ZM195.644 0H7.52454C3.31083 0 0 3.44979 0 7.4998V52.5002C0 56.7001 3.31083 60 7.52454 60H195.643C199.857 60 203.168 56.7001 203.168 52.5002V7.4998C203.168 3.44979 199.857 0 195.644 0Z" fill="#2C2C2C"/>
<path d="M71.3348 15.3C71.3348 16.4996 71.0341 17.5502 70.2816 18.3003C69.3787 19.2002 68.3255 19.6505 66.9707 19.6505C65.616 19.6505 64.5628 19.2002 63.6599 18.3003C62.757 17.4003 62.3052 16.3506 62.3052 15.0003C62.3052 13.65 62.757 12.6003 63.6599 11.7004C64.5628 10.8005 65.616 10.3501 66.9707 10.3501C67.5729 10.3501 68.1743 10.4999 68.7765 10.8005C69.3787 11.1002 69.8297 11.4007 70.1312 11.8502L69.3787 12.6003C68.7765 11.8502 68.024 11.5505 66.9707 11.5505C66.0679 11.5505 65.165 11.8502 64.5628 12.6003C63.8102 13.2005 63.5096 14.1004 63.5096 15.1502C63.5096 16.1999 63.8102 17.0998 64.5628 17.7C65.3153 18.3003 66.0679 18.7498 66.9707 18.7498C68.024 18.7498 68.7765 18.4501 69.529 17.7C69.9809 17.2497 70.2816 16.6503 70.2816 15.9002H66.9707V14.7006H71.3348V15.3ZM78.2571 11.5497H74.1938V14.4001H77.9565V15.4499H74.1938V18.3003H78.2571V19.4999H72.9902V10.4999H78.2571V11.5497ZM83.2234 19.4999H82.0198V11.5497H79.4615V10.4999H85.7825V11.5497H83.2242V19.4999H83.2234ZM90.1466 19.4999V10.4999H91.3501V19.4999H90.1466ZM96.4675 19.4999H95.264V11.5497H92.7057V10.4999H98.8763V11.5497H96.318V19.4999H96.4675ZM110.764 18.3003C109.861 19.2002 108.808 19.6505 107.453 19.6505C106.099 19.6505 105.045 19.2002 104.142 18.3003C103.24 17.4003 102.788 16.3506 102.788 15.0003C102.788 13.65 103.24 12.6003 104.142 11.7004C105.045 10.8005 106.099 10.3501 107.453 10.3501C108.808 10.3501 109.861 10.8005 110.764 11.7004C111.667 12.6003 112.119 13.65 112.119 15.0003C112.119 16.3506 111.667 17.3995 110.764 18.3003ZM105.045 17.5502C105.647 18.1504 106.55 18.6 107.453 18.6C108.356 18.6 109.259 18.3003 109.861 17.5502C110.463 16.95 110.914 16.0501 110.914 15.0003C110.914 13.9506 110.614 13.0506 109.861 12.4504C109.259 11.8502 108.356 11.4007 107.453 11.4007C106.55 11.4007 105.647 11.7004 105.045 12.4504C104.443 13.0506 103.992 13.9506 103.992 15.0003C103.992 16.0501 104.293 16.95 105.045 17.5502ZM113.774 19.4999V10.4999H115.129L119.493 17.5502V10.4999H120.697V19.4999H119.493L114.827 12.1499V19.4999H113.774Z" fill="white" stroke="white" stroke-width="0.2" stroke-miterlimit="10"/>
<path d="M102.487 32.6998C98.8755 32.6998 96.0157 35.3996 96.0157 39.1499C96.0157 42.7495 98.8755 45.5999 102.487 45.5999C106.099 45.5999 108.958 42.9002 108.958 39.1499C108.958 35.2505 106.099 32.6998 102.487 32.6998ZM102.487 42.9002C100.531 42.9002 98.8755 41.2502 98.8755 39C98.8755 36.7498 100.531 35.0999 102.487 35.0999C104.443 35.0999 106.099 36.6 106.099 39C106.099 41.2502 104.444 42.9002 102.487 42.9002ZM88.4912 32.6998C84.8797 32.6998 82.0199 35.3996 82.0199 39.1499C82.0199 42.7495 84.8797 45.5999 88.4912 45.5999C92.1027 45.5999 94.9625 42.9002 94.9625 39.1499C94.9625 35.2505 92.1027 32.6998 88.4912 32.6998ZM88.4912 42.9002C86.5351 42.9002 84.8797 41.2502 84.8797 39C84.8797 36.7498 86.5351 35.0999 88.4912 35.0999C90.4473 35.0999 92.1027 36.6 92.1027 39C92.1027 41.2502 90.4473 42.9002 88.4912 42.9002ZM71.7859 34.6503V37.35H78.2572C78.1068 38.8502 77.5046 40.0498 76.7521 40.7998C75.8492 41.6998 74.3442 42.7495 71.7859 42.7495C67.7225 42.7495 64.7124 39.5994 64.7124 35.5494C64.7124 31.4994 67.8737 28.3501 71.7859 28.3501C73.8931 28.3501 75.5485 29.25 76.7521 30.2998L78.709 28.3501C77.0536 26.85 74.9464 25.6504 71.937 25.6504C66.5189 25.6504 61.8542 30.1508 61.8542 35.5502C61.8542 40.9497 66.5197 45.4501 71.937 45.4501C74.9472 45.4501 77.0536 44.5501 78.8602 42.5997C80.6659 40.7998 81.2681 38.25 81.2681 36.2995C81.2681 35.6993 81.2681 35.0999 81.1178 34.6495L71.7859 34.6503ZM140.111 36.7498C139.508 35.2497 138.003 32.6998 134.692 32.6998C131.382 32.6998 128.673 35.2497 128.673 39.1499C128.673 42.7495 131.382 45.5999 134.994 45.5999C137.854 45.5999 139.66 43.8001 140.261 42.7495L138.154 41.2502C137.402 42.3 136.499 43.05 134.994 43.05C133.489 43.05 132.586 42.4498 131.833 41.1004L140.412 37.5007L140.111 36.7498ZM131.382 38.8502C131.382 36.4501 133.339 35.0999 134.693 35.0999C135.747 35.0999 136.801 35.7001 137.101 36.4501L131.382 38.8502ZM124.309 45.0005H127.169V26.2498H124.309V45.0005ZM119.794 34.0501C119.041 33.3 117.838 32.55 116.333 32.55C113.172 32.55 110.162 35.4004 110.162 39C110.162 42.5997 113.022 45.3002 116.333 45.3002C117.838 45.3002 119.041 44.5501 119.643 43.8001H119.794V44.7C119.794 47.1 118.439 48.4503 116.333 48.4503C114.677 48.4503 113.473 47.2507 113.172 46.2001L110.764 47.2499C111.517 48.8999 113.322 51.0002 116.483 51.0002C119.794 51.0002 122.502 49.0505 122.502 44.4003V33.0003H119.794V34.0501ZM116.483 42.9002C114.527 42.9002 112.871 41.2502 112.871 39C112.871 36.7498 114.527 35.0999 116.483 35.0999C118.439 35.0999 119.944 36.7498 119.944 39C119.944 41.2502 118.44 42.9002 116.483 42.9002ZM153.204 26.2498H146.432V44.9997H149.292V37.9494H153.205C156.366 37.9494 159.376 35.6993 159.376 32.0996C159.376 28.5 156.364 26.2498 153.204 26.2498ZM153.355 35.2505H149.291V28.8005H153.355C155.462 28.8005 156.666 30.6003 156.666 31.9506C156.515 33.5997 155.311 35.2505 153.355 35.2505ZM170.661 32.55C168.554 32.55 166.448 33.4499 165.695 35.4004L168.253 36.4501C168.856 35.4004 169.759 35.0999 170.812 35.0999C172.317 35.0999 173.672 35.9998 173.822 37.4999V37.6497C173.37 37.35 172.166 36.8997 170.962 36.8997C168.253 36.8997 165.544 38.3998 165.544 41.0995C165.544 43.6494 167.802 45.2994 170.21 45.2994C172.166 45.2994 173.069 44.3995 173.821 43.4996H173.971V44.9997H176.68V37.7996C176.38 34.5005 173.822 32.55 170.661 32.55ZM170.361 42.9002C169.458 42.9002 168.103 42.4498 168.103 41.2502C168.103 39.7501 169.759 39.3005 171.113 39.3005C172.317 39.3005 172.919 39.6002 173.672 39.9007C173.37 41.6998 171.865 42.9002 170.361 42.9002ZM186.162 33.0003L183.002 41.1004H182.851L179.541 33.0003H176.531L181.497 44.4003L178.637 50.7005H181.497L189.172 33.0003H186.162ZM160.879 45.0005H163.739V26.2498H160.879V45.0005Z" fill="white"/>
<path d="M15.6513 11.25C15.1994 11.7004 15.0491 12.4496 15.0491 13.3503V46.5004C15.0491 47.4003 15.3498 48.1504 15.8016 48.6008L15.952 48.7506L34.6134 30.1506V29.8509L15.6513 11.25Z" fill="url(#paint0_linear)"/>
<path d="M40.6336 36.4504L34.463 30.3001V29.8497L40.6336 23.7002L40.784 23.85L48.1582 28.0499C50.2655 29.2495 50.2655 31.2 48.1582 32.3996L40.6336 36.4504Z" fill="url(#paint1_linear)"/>
<path d="M40.784 36.3002L34.463 30L15.6512 48.7499C16.4038 49.5 17.457 49.5 18.8117 48.8997L40.784 36.3002Z" fill="url(#paint2_linear)"/>
<path d="M40.784 23.6998L18.8117 11.25C17.457 10.5 16.4038 10.6498 15.6512 11.3999L34.463 29.9999L40.784 23.6998Z" fill="url(#paint3_linear)"/>
<path opacity="0.2" d="M40.6336 36.1504L18.8117 48.4503C17.6082 49.2003 16.5541 49.0505 15.8016 48.4503L15.6512 48.6001L15.8016 48.75C16.5541 49.3502 17.6073 49.5 18.8117 48.75L40.6336 36.1504Z" fill="black"/>
<path opacity="0.12" d="M15.6513 48.4502C15.1994 47.9998 15.0491 47.2506 15.0491 46.3499V46.4997C15.0491 47.3996 15.3498 48.1497 15.8016 48.6V48.4502H15.6513ZM48.1582 31.9497L40.6337 36.1503L40.784 36.3002L48.1582 32.1003C49.2114 31.5001 49.6633 30.7501 49.6633 30C49.6633 30.7501 49.0611 31.3503 48.1582 31.9497Z" fill="black"/>
<path opacity="0.25" d="M18.8117 11.4L48.1582 28.0504C49.0611 28.6506 49.6633 29.25 49.6633 30.0001C49.6633 29.25 49.2114 28.4999 48.1582 27.8997L18.8117 11.2502C16.7045 10.0506 15.0491 10.9505 15.0491 13.3505V13.5003C15.0499 11.2502 16.7053 10.2004 18.8117 11.4Z" fill="white"/>
<defs>
<linearGradient id="paint0_linear" x1="32.7992" y1="13.0571" x2="7.62488" y2="38.313" gradientUnits="userSpaceOnUse">
<stop stop-color="#00A0FF"/>
<stop offset="0.007" stop-color="#00A1FF"/>
<stop offset="0.26" stop-color="#00BEFF"/>
<stop offset="0.512" stop-color="#00D2FF"/>
<stop offset="0.76" stop-color="#00DFFF"/>
<stop offset="1" stop-color="#00E3FF"/>
</linearGradient>
<linearGradient id="paint1_linear" x1="50.9169" y1="30.0746" x2="14.5016" y2="30.0746" gradientUnits="userSpaceOnUse">
<stop stop-color="#FFE000"/>
<stop offset="0.409" stop-color="#FFBD00"/>
<stop offset="0.775" stop-color="#FFA500"/>
<stop offset="1" stop-color="#FF9C00"/>
</linearGradient>
<linearGradient id="paint2_linear" x1="37.3445" y1="33.426" x2="3.20765" y2="67.6754" gradientUnits="userSpaceOnUse">
<stop stop-color="#FF3A44"/>
<stop offset="1" stop-color="#C31162"/>
</linearGradient>
<linearGradient id="paint3_linear" x1="10.9266" y1="0.316379" x2="26.171" y2="15.6109" gradientUnits="userSpaceOnUse">
<stop stop-color="#32A071"/>
<stop offset="0.069" stop-color="#2DA771"/>
<stop offset="0.476" stop-color="#15CF74"/>
<stop offset="0.801" stop-color="#06E775"/>
<stop offset="1" stop-color="#00F076"/>
</linearGradient>
</defs>
</svg>

<svg width="204" height="60" fill="none" xmlns="http://www.w3.org/2000/svg"><path d="M195.644 60H7.524C3.312 60 0 56.7 0 52.5v-45C0 3.3 3.31 0 7.525 0h188.118c4.214 0 7.525 3.3 7.525 7.5v45c0 4.2-3.311 7.5-7.524 7.5z" fill="#2C2C2C"/><path d="M195.644 1.2c3.461 0 6.321 2.85 6.321 6.3v45c0 3.45-2.86 6.3-6.321 6.3H7.524c-3.46 0-6.32-2.85-6.32-6.3v-45c0-3.45 2.86-6.3 6.32-6.3h188.12zm0-1.2H7.524C3.312 0 0 3.45 0 7.5v45C0 56.7 3.31 60 7.525 60h188.118c4.214 0 7.525-3.3 7.525-7.5v-45c0-4.05-3.311-7.5-7.524-7.5z" fill="#2C2C2C"/><path d="M71.335 15.3c0 1.2-.3 2.25-1.053 3-.903.9-1.956 1.35-3.311 1.35s-2.408-.45-3.311-1.35c-.903-.9-1.355-1.95-1.355-3.3 0-1.35.452-2.4 1.355-3.3.903-.9 1.956-1.35 3.31-1.35.603 0 1.204.15 1.806.45.603.3 1.054.6 1.355 1.05l-.752.75c-.603-.75-1.355-1.05-2.408-1.05-.903 0-1.806.3-2.408 1.05-.753.6-1.053 1.5-1.053 2.55 0 1.05.3 1.95 1.053 2.55.752.6 1.505 1.05 2.408 1.05 1.053 0 1.805-.3 2.558-1.05.452-.45.753-1.05.753-1.8H66.97v-1.2h4.364v.6zm6.922-3.75h-4.063v2.85h3.763v1.05h-3.763v2.85h4.063v1.2H72.99v-9h5.267v1.05zm4.966 7.95H82.02v-7.95h-2.558V10.5h6.32v1.05h-2.558v7.95h0zm6.924 0v-9h1.203v9h-1.203zm6.32 0h-1.203v-7.95h-2.558V10.5h6.17v1.05h-2.558v7.95h.15zm14.297-1.2c-.903.9-1.956 1.35-3.311 1.35-1.354 0-2.408-.45-3.311-1.35-.902-.9-1.354-1.95-1.354-3.3 0-1.35.452-2.4 1.354-3.3.903-.9 1.957-1.35 3.311-1.35 1.355 0 2.408.45 3.311 1.35.903.9 1.355 1.95 1.355 3.3 0 1.35-.452 2.4-1.355 3.3zm-5.719-.75c.602.6 1.505 1.05 2.408 1.05s1.806-.3 2.408-1.05c.602-.6 1.053-1.5 1.053-2.55 0-1.05-.3-1.95-1.053-2.55-.602-.6-1.505-1.05-2.408-1.05s-1.806.3-2.408 1.05c-.602.6-1.053 1.5-1.053 2.55 0 1.05.301 1.95 1.053 2.55zm8.729 1.95v-9h1.355l4.364 7.05V10.5h1.204v9h-1.204l-4.666-7.35v7.35h-1.053z" fill="#fff" stroke="#fff" stroke-width=".2" stroke-miterlimit="10"/><path d="M102.487 32.7c-3.611 0-6.471 2.7-6.471 6.45 0 3.6 2.86 6.45 6.471 6.45 3.612 0 6.471-2.7 6.471-6.45 0-3.9-2.859-6.45-6.471-6.45zm0 10.2c-1.956 0-3.611-1.65-3.611-3.9s1.655-3.9 3.611-3.9c1.956 0 3.612 1.5 3.612 3.9 0 2.25-1.655 3.9-3.612 3.9zM88.491 32.7c-3.611 0-6.471 2.7-6.471 6.45 0 3.6 2.86 6.45 6.471 6.45 3.612 0 6.472-2.7 6.472-6.45 0-3.9-2.86-6.45-6.472-6.45zm0 10.2c-1.956 0-3.611-1.65-3.611-3.9s1.655-3.9 3.611-3.9c1.956 0 3.612 1.5 3.612 3.9 0 2.25-1.656 3.9-3.612 3.9zm-16.705-8.25v2.7h6.471c-.15 1.5-.752 2.7-1.505 3.45-.903.9-2.408 1.95-4.966 1.95-4.064 0-7.074-3.15-7.074-7.2 0-4.05 3.162-7.2 7.074-7.2 2.107 0 3.763.9 4.966 1.95l1.957-1.95c-1.655-1.5-3.763-2.7-6.772-2.7-5.418 0-10.083 4.5-10.083 9.9s4.666 9.9 10.083 9.9c3.01 0 5.117-.9 6.923-2.85 1.806-1.8 2.408-4.35 2.408-6.3 0-.6 0-1.2-.15-1.65h-9.332zm68.325 2.1c-.603-1.5-2.108-4.05-5.419-4.05-3.31 0-6.019 2.55-6.019 6.45 0 3.6 2.709 6.45 6.321 6.45 2.86 0 4.666-1.8 5.267-2.85l-2.107-1.5c-.752 1.05-1.655 1.8-3.16 1.8-1.505 0-2.408-.6-3.161-1.95l8.579-3.6-.301-.75zm-8.729 2.1c0-2.4 1.957-3.75 3.311-3.75 1.054 0 2.108.6 2.408 1.35l-5.719 2.4zM124.309 45h2.86V26.25h-2.86V45zm-4.515-10.95c-.753-.75-1.956-1.5-3.461-1.5-3.161 0-6.171 2.85-6.171 6.45s2.86 6.3 6.171 6.3c1.505 0 2.708-.75 3.31-1.5h.151v.9c0 2.4-1.355 3.75-3.461 3.75-1.656 0-2.86-1.2-3.161-2.25l-2.408 1.05c.753 1.65 2.558 3.75 5.719 3.75 3.311 0 6.019-1.95 6.019-6.6V33h-2.708v1.05zm-3.311 8.85c-1.956 0-3.612-1.65-3.612-3.9s1.656-3.9 3.612-3.9c1.956 0 3.461 1.65 3.461 3.9s-1.504 3.9-3.461 3.9zm36.721-16.65h-6.772V45h2.86v-7.05h3.913c3.161 0 6.171-2.25 6.171-5.85 0-3.6-3.012-5.85-6.172-5.85zm.151 9h-4.064V28.8h4.064c2.107 0 3.311 1.8 3.311 3.15-.151 1.65-1.355 3.3-3.311 3.3zm17.306-2.7c-2.107 0-4.213.9-4.966 2.85l2.558 1.05c.603-1.05 1.506-1.35 2.559-1.35 1.505 0 2.86.9 3.01 2.4v.15c-.452-.3-1.656-.75-2.86-.75-2.709 0-5.418 1.5-5.418 4.2 0 2.55 2.258 4.2 4.666 4.2 1.956 0 2.859-.9 3.611-1.8h.15V45h2.709v-7.2c-.3-3.3-2.858-5.25-6.019-5.25zm-.3 10.35c-.903 0-2.258-.45-2.258-1.65 0-1.5 1.656-1.95 3.01-1.95 1.204 0 1.806.3 2.559.6-.302 1.8-1.807 3-3.311 3zm15.801-9.9l-3.16 8.1h-.151l-3.31-8.1h-3.01l4.966 11.4-2.86 6.3h2.86l7.675-17.7h-3.01zm-25.283 12h2.86V26.25h-2.86V45z" fill="#fff"/><path d="M15.651 11.25c-.452.45-.602 1.2-.602 2.1V46.5c0 .9.3 1.65.753 2.1l.15.15 18.661-18.6v-.3l-18.962-18.6z" fill="url(#paint0_linear)"/><path d="M40.634 36.45l-6.171-6.15v-.45l6.17-6.15.151.15 7.374 4.2c2.108 1.2 2.108 3.15 0 4.35l-7.524 4.05z" fill="url(#paint1_linear)"/><path d="M40.784 36.3L34.463 30 15.651 48.75c.753.75 1.806.75 3.16.15l21.973-12.6z" fill="url(#paint2_linear)"/><path d="M40.784 23.7L18.812 11.25c-1.355-.75-2.408-.6-3.16.15L34.462 30l6.321-6.3z" fill="url(#paint3_linear)"/><path opacity=".2" d="M40.634 36.15l-21.822 12.3c-1.204.75-2.258.6-3.01 0l-.15.15.15.15c.752.6 1.805.75 3.01 0l21.822-12.6z" fill="#000"/><path opacity=".12" d="M15.651 48.45c-.452-.45-.602-1.2-.602-2.1v.15c0 .9.3 1.65.753 2.1v-.15h-.15zm32.507-16.5l-7.524 4.2.15.15 7.374-4.2c1.053-.6 1.505-1.35 1.505-2.1 0 .75-.602 1.35-1.505 1.95z" fill="#000"/><path opacity=".25" d="M18.812 11.4l29.346 16.65c.903.6 1.505 1.2 1.505 1.95 0-.75-.452-1.5-1.505-2.1L18.812 11.25c-2.108-1.2-3.763-.3-3.763 2.1v.15c0-2.25 1.656-3.3 3.763-2.1z" fill="#fff"/><defs><linearGradient id="paint0_linear" x1="32.799" y1="13.057" x2="7.625" y2="38.313" gradientUnits="userSpaceOnUse"><stop stop-color="#00A0FF"/><stop offset=".007" stop-color="#00A1FF"/><stop offset=".26" stop-color="#00BEFF"/><stop offset=".512" stop-color="#00D2FF"/><stop offset=".76" stop-color="#00DFFF"/><stop offset="1" stop-color="#00E3FF"/></linearGradient><linearGradient id="paint1_linear" x1="50.917" y1="30.075" x2="14.502" y2="30.075" gradientUnits="userSpaceOnUse"><stop stop-color="#FFE000"/><stop offset=".409" stop-color="#FFBD00"/><stop offset=".775" stop-color="orange"/><stop offset="1" stop-color="#FF9C00"/></linearGradient><linearGradient id="paint2_linear" x1="37.344" y1="33.426" x2="3.208" y2="67.675" gradientUnits="userSpaceOnUse"><stop stop-color="#FF3A44"/><stop offset="1" stop-color="#C31162"/></linearGradient><linearGradient id="paint3_linear" x1="10.927" y1=".316" x2="26.171" y2="15.611" gradientUnits="userSpaceOnUse"><stop stop-color="#32A071"/><stop offset=".069" stop-color="#2DA771"/><stop offset=".476" stop-color="#15CF74"/><stop offset=".801" stop-color="#06E775"/><stop offset="1" stop-color="#00F076"/></linearGradient></defs></svg>
